X: 41280
T: Tullaghan Lassies, The
R: reel
M: 4/4
K: Adorian
e2 A (3AAA e(dcd)|BGd(G Bc)dg|e2 A (3AAA edc(e|dB)gB A(a^ga)|
e2 A (3AAA edcd|BGdG Bcdg|ecAB (3ccc {d}(c2|d2) (~B2 {d}c)AA:|
g|agf(a{a} ge)dc|BGd(G Bc)dg|agf(a gf)g(a{b}|ag)ed eAAg|
agfa gedc|BGdG Bcdg|ede(f {a}g2)ba|ged(B A2):|

